X:409
T:Little Peggy’s Love. RH.409
R:reel
S:Rev.R.Harrison’s MS,c1815,Cumbria
O:England
A:Temple Sowerby,Cumbria
Z:vmp.Simon Wilson. Review PJH, 2008.
M:C
L:1/8
Q:2/4=90
K:G
B|d3e dBgB|dBgB aA2B|\
d3e dBgB|(A/B/c) BA (BG2):|!
|:B|DGBG cGBG|ABGB A>GEG|\
DGBG cGBG|D>ED>c (BG2):|!
|:d|g2bg dgbg|agbg a>gb>g|\
g2bg dgbg|dedc (BG2):|

